dist/svgs/devui-icons/op/add-directory.svg

<svg xmlns="http://www.w3.org/2000/svg" viewBox="0 0 16 16"><path fill-rule="evenodd" d="M13 7H3v5h3v1h2v1H2a1 1 0 01-1-1V2a1 1 0 011-1h4l2 2h6a1 1 0 011 1v5h-2V7zm0-1V5H3v1h10zm-3 4V8h2v2h2v2h-2v2h-2v-2H8v-2h2z"/></svg>

<?xml version="1.0" encoding="UTF-8"?>
<svg width="16px" height="16px" viewBox="0 0 16 16" version="1.1" xmlns="http://www.w3.org/2000/svg" xmlns:xlink="http://www.w3.org/1999/xlink">
    <title>操作/新建目录</title>
    <desc>Created with Sketch.</desc>
    <g id="操作/新建目录" stroke="none" stroke-width="1" fill="none" fill-rule="evenodd">
        <path d="M13,7 L3,7 L3,12 L6,12 L6,13 L8,13 L8,14 L2,14 C1.44771525,14 1,13.5522847 1,13 L1,2 C1,1.44771525 1.44771525,1 2,1 L6,1 L8,3 L14,3 C14.5522847,3 15,3.44771525 15,4 L15,9 L13,9 L13,7 Z M13,6 L13,5 L3,5 L3,6 L13,6 Z M10,10 L10,8 L12,8 L12,10 L14,10 L14,12 L12,12 L12,14 L10,14 L10,12 L8,12 L8,10 L10,10 Z" id="形状" fill="#293040"></path>
    </g>
</svg>
